symbols/web/edit_notifications/materialsymbolsrounded/edit_notifications_wght300gradN25fill1_40px.svg

<svg xmlns="http://www.w3.org/2000/svg" height="40" width="40"><path d="M21.458 21.833q-.291 0-.479-.187-.187-.188-.187-.479V20q0-.083.208-.417l8.917-8.916L32 12.708l-8.958 8.917q0 .042-.459.208Zm11.584-10.208L31 9.542l1.458-1.417q.167-.208.375-.208.209 0 .417.208l1.208 1.208q.209.209.209.459t-.209.458ZM20 36.208q-1.25 0-2.104-.875-.854-.875-.854-2.083h5.916q0 1.208-.854 2.083-.854.875-2.104.875ZM8.208 31.417q-.416 0-.708-.292t-.292-.75q0-.375.292-.667.292-.291.708-.291h2.417V16.792q0-3.334 2.063-5.959 2.062-2.625 5.354-3.291V6.375q0-.833.562-1.375.563-.542 1.396-.542T21.396 5q.562.542.562 1.375v1.167q1.25.208 2.417.833Q25.542 9 26.542 10l-7.584 7.625q-.541.5-.77 1.021-.23.521-.23 1.229v3.208q0 .667.459 1.125.458.459 1.125.459h3.208q.708 0 1.25-.25t1-.75l4.417-4.375v10.125h2.375q.416 0 .708.291.292.292.292.667 0 .458-.292.75t-.708.292Z"/></svg>

<svg xmlns="http://www.w3.org/2000/svg" height="40" width="40"><path d="M21.458 21.833Q21.167 21.833 20.979 21.646Q20.792 21.458 20.792 21.167V20Q20.792 19.917 21 19.583L29.917 10.667L32 12.708L23.042 21.625Q23.042 21.667 22.583 21.833ZM33.042 11.625 31 9.542 32.458 8.125Q32.625 7.917 32.833 7.917Q33.042 7.917 33.25 8.125L34.458 9.333Q34.667 9.542 34.667 9.792Q34.667 10.042 34.458 10.25ZM20 36.208Q18.75 36.208 17.896 35.333Q17.042 34.458 17.042 33.25H22.958Q22.958 34.458 22.104 35.333Q21.25 36.208 20 36.208ZM8.208 31.417Q7.792 31.417 7.5 31.125Q7.208 30.833 7.208 30.375Q7.208 30 7.5 29.708Q7.792 29.417 8.208 29.417H10.625V16.792Q10.625 13.458 12.688 10.833Q14.75 8.208 18.042 7.542V6.375Q18.042 5.542 18.604 5Q19.167 4.458 20 4.458Q20.833 4.458 21.396 5Q21.958 5.542 21.958 6.375V7.542Q23.208 7.75 24.375 8.375Q25.542 9 26.542 10L18.958 17.625Q18.417 18.125 18.188 18.646Q17.958 19.167 17.958 19.875V23.083Q17.958 23.75 18.417 24.208Q18.875 24.667 19.542 24.667H22.75Q23.458 24.667 24 24.417Q24.542 24.167 25 23.667L29.417 19.292V29.417H31.792Q32.208 29.417 32.5 29.708Q32.792 30 32.792 30.375Q32.792 30.833 32.5 31.125Q32.208 31.417 31.792 31.417Z"/></svg>
